X:1
T:Going Down to Charleston
L:1/8
M:2/2
I:linebreak $
K:G
V:1 treble 
V:1
 D(E | G2) EG DB,DE | GFGA BcdB | GDEG DB,DE | GBAB [GB]2 (3(DEF | G2) EG DB,DE |$ GFGA BcdB | %7
 GDEG DB,DE | GBAB [GB]2 :: (3(DEF | G)DBc d2 dg | edBc dedB |$ GABd ddgd | edBd d2 (f2 | %14
 g)a g2 dBBB | gedc B2 GA | GDEG DB,DE | GBAB [GB]2 :| %18
